assets/presets/WEDDINGS LUTS #1/a4993afa25314a2ab0a347a65798df6a.xmp
<x:xmpmeta xmlns:x="adobe:ns:meta/" x:xmptk="Adobe XMP Core 7.0-c000 1.000000, 0000/00/00-00:00:00        ">
 <rdf:RDF xmlns:rdf="http://www.w3.org/1999/02/22-rdf-syntax-ns#">
  <rdf:Description rdf:about=""
    xmlns:crs="http://ns.adobe.com/camera-raw-settings/1.0/"
   crs:PresetType="Normal"
   crs:Cluster=""
   crs:UUID="213F0F1DC5094E8BB5CEC37067CE0ABA"
   crs:SupportsAmount2="True"
   crs:SupportsAmount="True"
   crs:SupportsColor="True"
   crs:SupportsMonochrome="True"
   crs:SupportsHighDynamicRange="True"
   crs:SupportsNormalDynamicRange="True"
   crs:SupportsSceneReferred="True"
   crs:SupportsOutputReferred="True"
   crs:RequiresRGBTables="False"
   crs:CameraModelRestriction=""
   crs:Copyright=""
   crs:ContactInfo=""
   crs:Version="17.3"
   crs:ProcessVersion="15.4"
   crs:WhiteBalance="Custom"
   crs:IncrementalTemperature="-8"
   crs:IncrementalTint="+13"
   crs:Exposure2012="-0.45"
   crs:Contrast2012="-40"
   crs:Highlights2012="+19"
   crs:Shadows2012="+78"
   crs:Whites2012="-12"
   crs:Blacks2012="-30"
   crs:Texture="+12"
   crs:Clarity2012="0"
   crs:Dehaze="0"
   crs:Vibrance="+6"
   crs:Saturation="-6"
   crs:ParametricShadows="0"
   crs:ParametricDarks="+10"
   crs:ParametricLights="0"
   crs:ParametricHighlights="0"
   crs:ParametricShadowSplit="25"
   crs:ParametricMidtoneSplit="50"
   crs:ParametricHighlightSplit="75"
   crs:Sharpness="4"
   crs:SharpenRadius="+1.0"
   crs:SharpenDetail="25"
   crs:SharpenEdgeMasking="0"
   crs:LuminanceSmoothing="0"
   crs:ColorNoiseReduction="30"
   crs:ColorNoiseReductionDetail="50"
   crs:ColorNoiseReductionSmoothness="50"
   crs:HueAdjustmentRed="+13"
   crs:HueAdjustmentOrange="+10"
   crs:HueAdjustmentYellow="+20"
   crs:HueAdjustmentGreen="-79"
   crs:HueAdjustmentAqua="+3"
   crs:HueAdjustmentBlue="-5"
   crs:HueAdjustmentPurple="+25"
   crs:HueAdjustmentMagenta="+20"
   crs:SaturationAdjustmentRed="+38"
   crs:SaturationAdjustmentOrange="-31"
   crs:SaturationAdjustmentYellow="-33"
   crs:SaturationAdjustmentGreen="-48"
   crs:SaturationAdjustmentAqua="-42"
   crs:SaturationAdjustmentBlue="-35"
   crs:SaturationAdjustmentPurple="0"
   crs:SaturationAdjustmentMagenta="-15"
   crs:LuminanceAdjustmentRed="+7"
   crs:LuminanceAdjustmentOrange="-19"
   crs:LuminanceAdjustmentYellow="-9"
   crs:LuminanceAdjustmentGreen="+13"
   crs:LuminanceAdjustmentAqua="+3"
   crs:LuminanceAdjustmentBlue="-30"
   crs:LuminanceAdjustmentPurple="0"
   crs:LuminanceAdjustmentMagenta="0"
   crs:SplitToningShadowHue="0"
   crs:SplitToningShadowSaturation="0"
   crs:SplitToningHighlightHue="0"
   crs:SplitToningHighlightSaturation="0"
   crs:SplitToningBalance="0"
   crs:ColorGradeMidtoneHue="0"
   crs:ColorGradeMidtoneSat="0"
   crs:ColorGradeShadowLum="0"
   crs:ColorGradeMidtoneLum="0"
   crs:ColorGradeHighlightLum="0"
   crs:ColorGradeBlending="50"
   crs:ColorGradeGlobalHue="0"
   crs:ColorGradeGlobalSat="0"
   crs:ColorGradeGlobalLum="0"
   crs:AutoLateralCA="1"
   crs:LensProfileEnable="1"
   crs:LensManualDistortionAmount="0"
   crs:VignetteAmount="0"
   crs:DefringePurpleAmount="0"
   crs:DefringePurpleHueLo="30"
   crs:DefringePurpleHueHi="70"
   crs:DefringeGreenAmount="0"
   crs:DefringeGreenHueLo="40"
   crs:DefringeGreenHueHi="60"
   crs:GrainAmount="0"
   crs:PostCropVignetteAmount="0"
   crs:ShadowTint="0"
   crs:RedHue="+31"
   crs:RedSaturation="0"
   crs:GreenHue="+63"
   crs:GreenSaturation="0"
   crs:BlueHue="-15"
   crs:BlueSaturation="-11"
   crs:HDREditMode="0"
   crs:CurveRefineSaturation="100"
   crs:ConvertToGrayscale="False"
   crs:OverrideLookVignette="False"
   crs:ToneCurveName2012="Custom"
   crs:CameraProfile="Default Color"
   crs:LensProfileSetup="LensDefaults"
   crs:HasSettings="True">
   <crs:Name>
    <rdf:Alt>
     <rdf:li xml:lang="x-default">20</rdf:li>
    </rdf:Alt>
   </crs:Name>
   <crs:ShortName>
    <rdf:Alt>
     <rdf:li xml:lang="x-default"/>
    </rdf:Alt>
   </crs:ShortName>
   <crs:SortName>
    <rdf:Alt>
     <rdf:li xml:lang="x-default"/>
    </rdf:Alt>
   </crs:SortName>
   <crs:Group>
    <rdf:Alt>
     <rdf:li xml:lang="x-default">Wedding verse 2 - by The Way Labs</rdf:li>
    </rdf:Alt>
   </crs:Group>
   <crs:Description>
    <rdf:Alt>
     <rdf:li xml:lang="x-default"/>
    </rdf:Alt>
   </crs:Description>
   <crs:ToneCurvePV2012>
    <rdf:Seq>
     <rdf:li>0, 13</rdf:li>
     <rdf:li>56, 61</rdf:li>
     <rdf:li>106, 109</rdf:li>
     <rdf:li>189, 178</rdf:li>
     <rdf:li>255, 206</rdf:li>
    </rdf:Seq>
   </crs:ToneCurvePV2012>
   <crs:ToneCurvePV2012Red>
    <rdf:Seq>
     <rdf:li>0, 0</rdf:li>
     <rdf:li>22, 5</rdf:li>
     <rdf:li>66, 42</rdf:li>
     <rdf:li>116, 128</rdf:li>
     <rdf:li>181, 201</rdf:li>
     <rdf:li>255, 255</rdf:li>
    </rdf:Seq>
   </crs:ToneCurvePV2012Red>
   <crs:ToneCurvePV2012Green>
    <rdf:Seq>
     <rdf:li>0, 0</rdf:li>
     <rdf:li>22, 6</rdf:li>
     <rdf:li>65, 43</rdf:li>
     <rdf:li>116, 128</rdf:li>
     <rdf:li>181, 199</rdf:li>
     <rdf:li>255, 255</rdf:li>
    </rdf:Seq>
   </crs:ToneCurvePV2012Green>
   <crs:ToneCurvePV2012Blue>
    <rdf:Seq>
     <rdf:li>0, 0</rdf:li>
     <rdf:li>22, 6</rdf:li>
     <rdf:li>66, 43</rdf:li>
     <rdf:li>118, 127</rdf:li>
     <rdf:li>181, 199</rdf:li>
     <rdf:li>255, 255</rdf:li>
    </rdf:Seq>
   </crs:ToneCurvePV2012Blue>
  </rdf:Description>
 </rdf:RDF>
</x:xmpmeta>
